X:1
T:Title
%%score { ( 1 3 5 ) | ( 2 4 ) }
L:1/8
Q:1/4=92
M:4/4
K:A
V:1 treble nm="Grand Piano"
V:3 treble 
V:5 treble 
V:2 bass 
V:4 bass 
V:1
 [CE]2 [DF]>[DG] [CA][CF] [CE]2 | [EA]2 B>B c4 | B2 c>[A^d] [Ge][GB] [EG]2 | %3
w: William~J.~Kirkpatrick * * * * *|||
 [^DB]2 [DF]>[DG] z .D F/G/A/B/ | [Ec]2 [DB]>[Ec] [CA][CF] [CE]2 | [EA]2 B>B c4 | %6
w: |||
 [Fd]2 [Fc][FB] [Ee][Ec] [EA]2 | [^DB]2 [=DF]>[DG] [CA]4 | [DB]4 z4 | [CE]2 d2 z4 | %10
w: ||||
 [Ec]4 (3cde (3AGA | [FB]2 [Ac]2 z4 | [Ec]4 (3cde (3[=Ge][Fd][Ec] | B2[K:bass][K:treble] [DF]2 z4 | %14
w: ||||
 [EG]4 z4 | [B,E]2 [B,^D]2[K:treble] E4 | [CE]2 [DF]>[DG] [CA][CF] [CE]2 | [EA]2 B>B c4 | %18
w: ||||
 B2 c>[A^d] [Ge][GB] [EG]2 | [^DB]2 [DF]>[DG] z .D F/G/A/B/ | [Ec]2 [DB]>[Ec] [CA][CF] [CE]2 | %21
w: |||
 [EA]2 B>B c4 | [Fd]2 [Fc][FB] [Ee][Ec] [EA]2 |[M:8/4] [^DB]2 [=DF]>[DG] [CA]4 z8 |] %24
w: |||
V:2
 [A,,A,]2 [A,,A,]>[A,,A,] [A,,A,][A,,A,] [A,,A,]2 | [C,A,]2 [E,G,E]>[E,G,E] [A,E]4 | %2
 [E,G,E]2 [E,A,E]>[E,A,] [E,B,][E,B,] [E,B,]2 | [B,,B,]2 [B,,A,]>[B,,A,] [E,G,]4 | %4
 [A,,A,]2 [A,,E,]>[A,,E,] [A,,E,][A,,A,] [A,,A,]2 | [C,A,]2 [E,G,E]>[E,G,E] [A,E]4 | %6
 [D,A,]2 [D,A,][D,A,] [C,A,][C,A,] [C,E,]2 | [B,,B,]2 [E,B,]>[E,B,] [A,,A,]4 | %8
 [E,G,]2 (3E,E,E, (3[E,G,D][E,G,E][E,G,D] (3CED | z2 E2 z4 | %10
 A,2 (3A,A,A, (3[A,E][A,B,E][A,CE] (3[F,CF][F,CF][F,CF] | %11
 (3B,,B,,B,, (3:2:2B,,2 B,, (3z[K:treble] E-[EF] (3GAB | %12
 A,2 (3A,A,A, (3[A,E][K:treble][A,F][A,=G][K:bass] (3:2:2[C,A,]2 [C,A,] | %13
 (3[D,F,]D,D, (3:2:2D,2 D, [D,B,]2 [D,B,]2 | [E,B,]2 (3E,E,E, (3E,E,E, (3A,,A,,A,, | z4 B,2 z2 | %16
 [A,,A,]2 [A,,A,]>[A,,A,] [A,,A,][A,,A,] [A,,A,]2 | [C,A,]2 [E,G,E]>[E,G,E] [A,E]4 | %18
 [E,G,E]2 [E,A,E]>[E,A,] [E,B,][E,B,] [E,B,]2 | [B,,B,]2 [B,,A,]>[B,,A,] [E,G,]4 | %20
 [A,,A,]2 [A,,E,]>[A,,E,] [A,,E,][A,,A,] [A,,A,]2 | [C,A,]2 [E,G,E]>[E,G,E] [A,E]4 | %22
 [D,A,]2 [D,A,][D,A,] [C,A,][C,A,] [C,E,]2 |[M:8/4] [B,,B,]2 [E,B,]>[E,B,] [A,,A,]4 z8 |] %24
V:3
 x8 | x8 | x8 | z4 E>E- E2 | x8 | x8 | x8 | x8 | z2 (3G,G,G, (3BcB (3AGF | %9
 (3A,A,A, (3:2:2z2 B, c2 B2 | x8 | (3^DDD (3:2:2D2 D .[EGB]2 z2 | x8 | %13
 (3z[K:bass] F,F,[K:treble] (3:2:2B,2 B, [Fd]2 [FB]2 | %14
 z2 (3B,B,B, (3[B,EG][A,EF][B,EG] (3[CEA][B,EG][A,CF] | (3G,G,G, (3:2:2A,2 A,[K:treble] z2 =D2 | %16
 x8 | x8 | x8 | z4 E>E- E2 | x8 | x8 | x8 |[M:8/4] x16 |] %24
V:4
 x8 | x8 | x8 | x8 | x8 | x8 | x8 | x8 | x8 | (3E,E,E, (3:2:2[E,B,]2 E, [E,A,E]2 [E,G,E]2 | x8 | %11
 z4 E,2[K:treble] z2 | x14/3[K:treble] x4/3[K:bass] x2 | x8 | x8 | %15
 (3B,,B,,B,, (3:2:2B,,2 B,, [E,G,]4 | x8 | x8 | x8 | x8 | x8 | x8 | x8 |[M:8/4] x16 |] %24
V:5
 x8 | x8 | x8 | x8 | x8 | x8 | x8 | x8 | x8 | x8 | x8 | x8 | x8 | D2[K:bass][K:treble] z2 z4 | x8 | %15
 x4[K:treble] x4 | x8 | x8 | x8 | x8 | x8 | x8 | x8 |[M:8/4] x16 |] %24

